X:43
T:Swimming in the Gutter
S:Bernie Waugh
R:Jig
M:6/8
L:1/8
K:D minor
|:\
"Dm"d3 AFA|~d^cd AFA|"Gm"d^cd fed|"C"b2a "A"gfe|
"Dm"d3 AFA|"Bb"~d^cd AFA|"Gm"d^cd "A"a2g|1\
"Dm"fd^c d3:|2"Dm"fd^cd=cB||
|:\
"F"Acf ~fef|ac'a fef|"Bb"dbd "F"cac|"Gm"Bag "C"ecB|
"F"Acf fef|ac'a fef|"Bb"dbd "F"caf|1\
"C"ede "F"f3:|2"C"ede "A"fA^c|]


